X:1
T:Limerick Rake
C:
R:Jig
Q:180
K:G
M:6/8
L:1/16
|:E2|E2G2F2 E2D2E2|G2A2B2e4e2|d2B2B2 B2A2G2|A2F2E2D4D2|
E2G2F2 E2D2E2|G2A2B2e4e2|d2B2G2 A2F2D2|E6E4B2|
B2e2e2 e2f2e2|d2B2^c2d4d2e2|B2B2B2 A2G2A2|F2E2D4D2|
E2G2F2 E2D2E2|G2A2B2e4e2|d2B2G2 A2F2D2|E6E4:|
